X:9347
T:Last Sun at the Window
R:Reel
O:New Zealand
M:C
I:speed 420
C:Mark Fitzsimons
A:Auckland
K:D Dor
|:DDED CDB,D|DGDF DEDC|DDED CDB,D|A,DFD ECB,C|
DDED CDB,D|A,DG,D FDCD|AEcA dAeA|cAGE D4:|   
|:Add^c d^fdf|e=ccB A^cAc|=FAFA EAEA|DDED CDB,D|
FAdA fdaf|e^cec dfeg|afd^c A=cAG|=FA,EC D4:|
W:
W:
W:Copyright Mark Fitzsimons August 1997
W:markf@ihug.co.nz


